X:173
T:Young Tom Ennis
Z: id:dc-jig-150
M:6/8
L:1/8
K:A Dorian
B|cBA BcB|AGE GAB|cBA Bed|cAA A2B|!
cBA BcB|AGE GAB|cde ded|cAA A2:|!
f|g2e age|dBG Gef|g2e agf|efg a2f|!
g2e age|dBG GAB|cBA Bed|cAA A2:|!

